!!!SOCIAL_FUNCTION:	songs connected with ceremonies
!!!PDT:	1929
!!!OTL: No_106_Song_of_the_Watchers_(a).krn
!!!REG: Southwest
!!!LANG: Non-Tone
!!!LING_GROUP: Uto-Aztecan
**kern
*staff1
=1-
*clefF4
*k[b-e-a-]
*M3/4
2.c\
=2
4.B-\
8G\
8c\L
8B-\J
=3
2c\
4G\
=4
2F\
4r
=5
2B-\
4G\
=6
2G\
8B-\L
8G\J
=7
2B-\
4F\
=8
8E-/L
8C/J
4C/
4C/
=9
4C/
4E-\
8E-/L
8C/J
=10
2E-\
4C/
=11
4BB-/
4GG/
8.C/L
16E-/Jk
=12
4.E-\
8C/
4C/
=13
2.C/
==
*-
